img/icons/mono/about-lizing.svg

<svg width="33" height="32" viewBox="0 0 33 32" fill="none" xmlns="http://www.w3.org/2000/svg">
<path d="M12.857 19.9998L20.857 11.9998L12.857 19.9998ZM27.817 12.4398C27.417 11.2264 27.6836 9.66643 26.9503 8.66643C26.217 7.66643 24.6436 7.4131 23.6303 6.66643C22.617 5.91977 21.9236 4.51977 20.7103 4.1331C19.497 3.74643 18.1903 4.47977 16.857 4.47977C15.5236 4.47977 14.1903 3.74643 13.0036 4.1331C11.817 4.51977 11.097 5.94643 10.0836 6.66643C9.07029 7.38643 7.52362 7.63977 6.76362 8.66643C6.00362 9.6931 6.29695 11.2264 5.89695 12.4398C5.49695 13.6531 4.37695 14.6664 4.37695 15.9998C4.37695 17.3331 5.52362 18.3864 5.89695 19.5598C6.27029 20.7331 6.03029 22.3331 6.76362 23.3331C7.49695 24.3331 9.07029 24.5864 10.0836 25.3198C11.097 26.0531 11.7903 27.4798 13.0036 27.8664C14.217 28.2531 15.5236 27.5198 16.857 27.5198C18.1903 27.5198 19.5236 28.2531 20.7103 27.8664C21.897 27.4798 22.617 26.0531 23.6303 25.3198C24.6436 24.5864 26.217 24.3598 26.9503 23.3331C27.6836 22.3064 27.417 20.7731 27.817 19.5598C28.217 18.3464 29.337 17.3331 29.337 15.9998C29.337 14.6664 28.1903 13.6131 27.817 12.4398Z" stroke="black" stroke-width="2" stroke-linecap="round" stroke-linejoin="round"/>
<path d="M13.457 12.6665H13.5904" stroke="black" stroke-width="2" stroke-linecap="round" stroke-linejoin="round"/>
<path d="M20.124 19.3335H20.2574" stroke="black" stroke-width="2" stroke-linecap="round" stroke-linejoin="round"/>
</svg>

<svg width="33" height="32" fill="none" xmlns="http://www.w3.org/2000/svg"><path d="M12.857 20l8-8-8 8zm14.96-7.56c-.4-1.214-.133-2.774-.867-3.774-.733-1-2.306-1.253-3.32-2-1.013-.746-1.706-2.146-2.92-2.533-1.213-.387-2.52.347-3.853.347-1.333 0-2.667-.734-3.853-.347-1.187.387-1.907 1.813-2.92 2.533-1.014.72-2.56.974-3.32 2-.76 1.027-.467 2.56-.867 3.774-.4 1.213-1.52 2.226-1.52 3.56 0 1.333 1.147 2.386 1.52 3.56.373 1.173.133 2.773.867 3.773.733 1 2.306 1.253 3.32 1.987 1.013.733 1.706 2.16 2.92 2.546 1.213.387 2.52-.346 3.853-.346 1.333 0 2.667.733 3.853.346 1.187-.386 1.907-1.813 2.92-2.546 1.014-.734 2.587-.96 3.32-1.987.734-1.027.467-2.56.867-3.773.4-1.214 1.52-2.227 1.52-3.56 0-1.334-1.147-2.387-1.52-3.56zm-14.36.226h.133m6.534 6.668h.133" stroke="#000" stroke-width="2" stroke-linecap="round" stroke-linejoin="round"/></svg>
